; generated by PrusaSlicer 2.9.0 on 2025-01-30 at 09:52:21 UTC


; printer_model = COREONE
; filament_type = PLA
; filament_abrasive = 0
; nozzle_diameter = 0.4
; nozzle_high_flow = 1
; bed_temperature = 60
; brim_width = 0
; fill_density = 15%
; layer_height = 0.2
; temperature = 230
; ironing = 0
; support_material = 0
; extruder_colour = ""
; max_layer_z = 3.00
; objects_info = {"objects":[{"name":"Prusa_Keychain.stl","polygon":[[151.314,97.512],[152.531,97.804],[153.090,98.089],[153.828,98.672],[154.564,99.684],[154.804,100.264],[154.988,101.186],[154.988,118.814],[154.804,119.736],[154.236,120.851],[153.598,121.542],[152.531,122.196],[151.934,122.389],[151.000,122.500],[99.000,122.500],[97.764,122.304],[96.649,121.736],[95.958,121.098],[95.304,120.031],[95.049,119.126],[95.000,118.500],[95.012,101.186],[95.196,100.264],[95.764,99.149],[96.649,98.264],[97.469,97.804],[98.066,97.611],[99.000,97.500]]}]}
; filament used [mm] = 1319.54
; filament used [g] = 3.94
; filament cost = 0.14
; filament used [cm3] = 3.17
; total filament used for wipe tower [g] = 0.00
; estimated printing time (normal mode) = 9m 15s
; estimated printing time (silent mode) = 11m 47s

;
;

;
;

;
;

;
;

;
;

M73 P0 R9
M73 C6
M73 Q0 S11
M73 D8
M201 X10000 Y10000 Z200 E5000
M203 X350 Y350 Z12 E100
M204 P10000 R2500 T10000
M205 X10.00 Y10.00 Z2.00 E10.00
M205 S0 T0
M486 S0
M486 APrusa_Keychain.stl
M486 S-1
;TYPE:Custom
M17
M862.1 P0.4 A0 F1
M862.3 P "COREONE"
M862.5 P2
M862.6 P"Input shaper"
M115 U6.0.4+14924
M555 X95 Y93.5 W60 H29
G90
M83
M140 S60
M109 R170
M84 E
G28
M141 S20
M106 S70
G0 Z40 F10000
M104 T0 S150
M190 R60
M107
G29 G
M109 R170
M302 S160
G1 E-2 F2400
M84 E
G29 P9 X208 Y-2.5 W32 H4
; MBL
M84 E
G29 P1
G29 P1 X150 Y0 W100 H20 C
G29 P3.2
G29 P3.13
G29 A
; prepare for purge
M104 S230
G0 X249 Y-2.5 Z15 F4800
M109 S230
G92 E0
M569 S0 E
; Extrude purge line
G92 E0
G1 E2 F2400
M73 P1 R9
G0 E5 X235 Z0.2 F500
G0 X225 E4 F500
M73 Q1 S11
G0 X215 E4 F650
G0 X205 E4 F800
M73 P2 R9
G0 X202 Z0.05 F8000
G0 X199 Z0.2 F8000
G92 E0
M221 S100
G21
G90
M83
M572 S0.036
M142 S36
M107
;LAYER_CHANGE
;Z:0.2
;HEIGHT:0.2
G1 E-.7 F2700
G1 Z.8 F720
M486 S0
G1 X99.992 Y119.433 F21000
G1 Z.2 F720
G1 E.7 F1800
M204 P500
;TYPE:Perimeter
;WIDTH:0.499999
G1 F2700
G1 X99.807 Y119.24 E.01016
G1 X99.512 Y118.871 E.01796
G1 X99.265 Y118.411 E.01984
G3 X98.94 Y117.181 I5.52 J-2.115 E.04845
G1 X98.901 Y116.562 E.02357
G3 X99.221 Y114.79 I4.987 J-.013 E.06881
G1 X99.516 Y114.23 E.02406
G1 X99.932 Y113.727 E.02481
G1 X100.469 Y113.321 E.02559
G1 X101.176 Y113.036 E.02897
G1 X101.893 Y112.943 E.02748
G3 X102.785 Y113.036 I-.163 J5.85 E.03412
G1 X103.33 Y113.236 E.02206
G1 X103.909 Y113.618 E.02636
G1 X104.362 Y114.111 E.02545
G1 X104.691 Y114.679 E.02495
G1 X104.901 Y115.271 E.02387
G3 X105.06 Y116.483 I-5.806 J1.377 E.04654
G3 X104.744 Y118.299 I-5.244 J.022 E.07042
G1 X104.449 Y118.871 E.02446
G1 X104.033 Y119.381 E.02501
G1 X103.494 Y119.792 E.02576
G1 X102.785 Y120.078 E.02906
G1 X102.048 Y120.173 E.02824
G1 X101.344 Y120.116 E.02684
G1 X100.63 Y119.878 E.0286
G1 X100.049 Y119.492 E.02651
G1 X100.034 Y119.476 E.00083
M204 P4000
M204 T7000
G1 X100.034 Y119.476 F21000
G1 X100.297 Y119.1
M204 P500
;TYPE:External perimeter
G1 F2700
G1 X100.154 Y118.942 E.0081
G1 X99.914 Y118.655 E.01422
G1 X99.667 Y118.195 E.01984
G3 X99.357 Y116.536 I4.367 J-1.676 E.0645
G3 X99.654 Y114.936 I4.474 J.003 E.06219
G1 X99.916 Y114.45 E.02098
G1 X100.278 Y114.027 E.02116
G1 X100.734 Y113.694 E.02146
M73 D7
G1 X101.333 Y113.465 E.02437
G1 X101.938 Y113.397 E.02314
G1 X102.489 Y113.445 E.02102
G1 X103.173 Y113.665 E.02731
G1 X103.643 Y113.99 E.02172
G1 X104.016 Y114.41 E.02135
G1 X104.29 Y114.899 E.0213
G3 X104.604 Y116.51 I-4.113 J1.636 E.06274
G3 X104.309 Y118.157 I-4.731 J.004 E.06393
G1 X104.046 Y118.655 E.0214
G1 X103.686 Y119.084 E.02128
G1 X103.228 Y119.42 E.02159
G1 X102.628 Y119.649 E.02441
M73 Q2 S11
G1 X102.003 Y119.718 E.0239
G1 X101.389 Y119.662 E.02343
G1 X100.788 Y119.449 E.02423
G1 X100.342 Y119.139 E.02064
M204 P4000
G1 X100.074 Y118.843 F21000
G1 E-.7 F2700
G1 X99 Y121.577 Z.251 F21000
G1 Z.2 F720
G1 E.7 F1800
M204 P500
;TYPE:Perimeter
G1 F2700
G1 X98.627 Y121.561 E.01419
G3 X97.71 Y121.301 I.555 J-3.698 E.03632
G1 X97.183 Y121 E.02307
G1 X96.73 Y120.587 E.0233
G1 X96.355 Y120.081 E.02394
G1 X96.111 Y119.577 E.02128
G1 X95.947 Y118.984 E.02338
G1 X95.907 Y118.469 E.01963
G1 X95.907 Y101.531 E.64375
G3 X96.246 Y100.097 I3.378 J.042 E.05646
G3 X98.516 Y98.447 I2.787 J1.449 E.11057
G1 X99.031 Y98.407 E.01963
G1 X150.982 Y98.408 E1.97446
G3 X152.817 Y99 I-.031 J3.235 E.07441
G3 X154.053 Y101.016 I-1.887 J2.543 E.09211
G1 X154.093 Y101.658 E.02445
G1 X154.093 Y118.469 E.63892
G3 X153.754 Y119.903 I-3.378 J-.042 E.05646
M73 P2 R8
G3 X151.484 Y121.553 I-2.787 J-1.449 E.11057
G1 X150.969 Y121.593 E.01963
G1 X99.374 Y121.593 E1.96093
G1 X99.06 Y121.58 E.01194
M73 P3 R8
M204 P4000
G1 X99.06 Y121.58 F21000
G1 X99 Y122.05
M204 P500
;TYPE:External perimeter
G1 F2700
G3 X97.389 Y121.662 I.072 J-3.842 E.06348
G3 X96.129 Y120.586 I1.794 J-3.376 E.06348
G3 X95.495 Y119.055 I3.131 J-2.194 E.06348
G1 X95.45 Y118.487 E.02166
G1 X95.45 Y101.513 E.64512
G3 X95.838 Y99.889 I3.842 J.059 E.06397
G3 X96.914 Y98.629 I3.376 J1.794 E.06348
G3 X98.445 Y97.995 I2.194 J3.131 E.06348
G1 X99.013 Y97.95 E.02166
G1 X151 Y97.951 E1.97583
G3 X152.611 Y98.338 I-.068 J3.831 E.06347
G3 X153.871 Y99.414 I-1.794 J3.377 E.06348
G3 X154.505 Y100.945 I-3.131 J2.194 E.06348
G1 X154.55 Y101.658 E.02715
G1 X154.55 Y118.487 E.63961
G3 X154.162 Y120.111 I-3.842 J-.059 E.06397
G3 X153.086 Y121.371 I-3.376 J-1.794 E.06348
G3 X151.555 Y122.005 I-2.194 J-3.131 E.06348
G1 X150.987 Y122.05 E.02166
G1 X99.06 Y122.05 E1.97355
M204 P4000
G1 X98.661 Y122.025 F21000
M73 Q3 S11
G1 E-.7 F2700
G1 X120.392 Y112.61 Z.613 F21000
G1 X124.316 Y110.91 Z.681
G1 X128.24 Y109.21 Z.733
G1 X132.164 Y107.51 Z.77
G1 X140.012 Y104.11 Z.8
G1 X152.164 Y98.845
G1 Z.2 F720
G1 E.7 F1800
M204 P500
;TYPE:Solid infill
;WIDTH:0.502169
G1 F2700
G3 X153.185 Y99.912 I-9.101 J9.727 E.05642
G3 X153.643 Y100.973 I-2.25 J1.6 E.04446
G1 X151.527 Y98.857 E.11427
G2 X150.816 Y98.796 I-.646 J3.339 E.0273
G1 X153.704 Y101.684 E.15596
G1 X153.704 Y102.334 E.02482
G1 X150.167 Y98.796 E.19104
G1 X149.517 Y98.796 E.02482
G1 X153.704 Y102.983 E.22612
G1 X153.704 Y103.633 E.02482
M73 P4 R8
G1 X148.868 Y98.796 E.26119
G1 X148.218 Y98.796 E.02482
G1 X153.704 Y104.282 E.29627
G1 X153.704 Y104.932 E.02482
G1 X147.569 Y98.796 E.33134
G1 X146.919 Y98.796 E.02482
G1 X153.704 Y105.581 E.36642
G1 X153.704 Y106.231 E.02482
G1 X146.27 Y98.796 E.40149
G1 X145.62 Y98.796 E.02482
G1 X153.704 Y106.88 E.43657
G1 X153.704 Y107.53 E.02482
G1 X144.971 Y98.796 E.47165
G1 X144.321 Y98.796 E.02482
G1 X153.704 Y108.179 E.50672
G1 X153.704 Y108.829 E.02482
G1 X143.672 Y98.796 E.5418
G1 X143.022 Y98.796 E.02482
G1 X153.704 Y109.478 E.57687
G1 X153.704 Y110.127 E.02478
G1 X142.373 Y98.796 E.61192
G1 X141.723 Y98.796 E.02482
G1 X153.704 Y110.777 E.64702
G1 X153.704 Y111.426 E.02478
G1 X141.074 Y98.796 E.68207
G1 X140.425 Y98.796 E.02478
G1 X153.704 Y112.076 E.71715
G1 X153.704 Y112.725 E.02478
M73 Q4 S11
G1 X139.775 Y98.796 E.75222
G1 X139.126 Y98.796 E.02478
M73 P5 R8
G1 X153.704 Y113.375 E.7873
G1 X153.704 Y114.024 E.02478
G1 X138.476 Y98.796 E.82238
G1 X137.827 Y98.796 E.02478
G1 X153.704 Y114.674 E.85745
G1 X153.704 Y115.323 E.02478
G1 X137.177 Y98.796 E.89253
G1 X136.528 Y98.796 E.02478
G1 X153.704 Y115.973 E.9276
G1 X153.704 Y116.622 E.02478
G1 X135.878 Y98.796 E.96268
G1 X135.229 Y98.796 E.02478
G1 X153.704 Y117.272 E.99775
G1 X153.704 Y117.921 E.02478
G1 X134.579 Y98.796 E1.03283
G1 X133.93 Y98.796 E.02478
G1 X153.696 Y118.562 E1.06745
G3 X153.617 Y119.133 I-2.33 J-.031 E.02207
M73 P6 R8
G1 X133.28 Y98.796 E1.09828
G1 X132.631 Y98.796 E.02478
M73 Q5 S11
G1 X153.452 Y119.617 E1.12442
G3 X153.218 Y120.033 I-2.13 J-.921 E.01826
G1 X131.981 Y98.796 E1.14689
G1 X131.332 Y98.796 E.02478
G1 X152.926 Y120.391 E1.16619
G1 X152.91 Y120.41 E.00095
G1 X152.578 Y120.691 E.01661
G1 X130.682 Y98.796 E1.18245
G1 X130.033 Y98.796 E.02478
G1 X152.168 Y120.931 E1.19538
G3 X151.691 Y121.103 I-1.003 J-2.026 E.0194
G1 X129.383 Y98.796 E1.2047
G1 X128.734 Y98.796 E.02478
M73 P7 R8
G1 X151.129 Y121.191 E1.20942
G3 X150.493 Y121.204 I-.444 J-5.815 E.0243
G1 X128.084 Y98.796 E1.21015
G1 X127.435 Y98.796 E.02478
G1 X149.843 Y121.204 E1.21013
G1 X149.194 Y121.204 E.02478
M73 C5
M73 Q6 S11
G1 X126.785 Y98.796 E1.21015
G1 X126.136 Y98.796 E.02478
G1 X148.544 Y121.204 E1.21013
G1 X147.895 Y121.204 E.02478
G1 X125.486 Y98.796 E1.21015
G1 X124.837 Y98.796 E.02478
G1 X147.245 Y121.204 E1.21013
G1 X146.596 Y121.204 E.02478
M73 P8 R8
G1 X124.187 Y98.796 E1.21015
G1 X123.538 Y98.796 E.02478
G1 X145.947 Y121.204 E1.21015
G1 X145.297 Y121.204 E.02482
G1 X122.888 Y98.796 E1.21015
G1 X122.239 Y98.796 E.02478
M73 Q6 S10
G1 X144.648 Y121.204 E1.21015
G1 X143.998 Y121.204 E.02482
G1 X121.59 Y98.796 E1.21013
G1 X120.94 Y98.796 E.02482
M73 Q7 S10
G1 X143.349 Y121.204 E1.21015
G1 X142.699 Y121.204 E.02482
G1 X120.291 Y98.796 E1.21013
G1 X119.641 Y98.796 E.02482
G1 X142.05 Y121.204 E1.21015
M73 P9 R8
G1 X141.4 Y121.204 E.02482
G1 X118.992 Y98.796 E1.21013
G1 X118.342 Y98.796 E.02482
G1 X140.751 Y121.204 E1.21015
G1 X140.101 Y121.204 E.02482
G1 X117.693 Y98.796 E1.21013
G1 X117.043 Y98.796 E.02482
G1 X139.452 Y121.204 E1.21015
G1 X138.802 Y121.204 E.02482
G1 X116.394 Y98.796 E1.21013
G1 X115.744 Y98.796 E.02482
G1 X138.153 Y121.204 E1.21015
G1 X137.503 Y121.204 E.02482
M73 Q8 S10
G1 X115.095 Y98.796 E1.21013
M73 P10 R8
G1 X114.445 Y98.796 E.02482
G1 X136.854 Y121.204 E1.21015
G1 X136.204 Y121.204 E.02482
G1 X113.796 Y98.796 E1.21013
G1 X113.146 Y98.796 E.02482
G1 X135.555 Y121.204 E1.21015
G1 X134.905 Y121.204 E.02482
G1 X112.497 Y98.796 E1.21013
G1 X111.847 Y98.796 E.02482
G1 X134.256 Y121.204 E1.21015
G1 X133.606 Y121.204 E.02482
G1 X111.198 Y98.796 E1.21013
G1 X110.548 Y98.796 E.02482
G1 X132.957 Y121.204 E1.21015
G1 X132.308 Y121.204 E.02478
M73 P11 R8
M73 Q9 S10
G1 X109.899 Y98.796 E1.21015
G1 X109.249 Y98.796 E.02482
G1 X131.658 Y121.204 E1.21015
G1 X131.009 Y121.204 E.02478
G1 X108.6 Y98.796 E1.21015
G1 X107.95 Y98.796 E.02482
G1 X130.359 Y121.204 E1.21015
G1 X129.71 Y121.204 E.02478
G1 X107.301 Y98.796 E1.21015
G1 X106.651 Y98.796 E.02482
G1 X129.06 Y121.204 E1.21015
G1 X128.411 Y121.204 E.02478
G1 X106.002 Y98.796 E1.21015
G1 X105.352 Y98.796 E.02482
M73 P12 R8
G1 X127.761 Y121.204 E1.21015
G1 X127.112 Y121.204 E.02478
G1 X104.703 Y98.796 E1.21015
G1 X104.053 Y98.796 E.02482
M73 Q10 S10
G1 X126.462 Y121.204 E1.21015
G1 X125.813 Y121.204 E.02478
G1 X103.404 Y98.796 E1.21015
G1 X102.755 Y98.796 E.02478
G1 X125.163 Y121.204 E1.21013
G1 X124.514 Y121.204 E.02478
G1 X102.105 Y98.796 E1.21015
G1 X101.456 Y98.796 E.02478
M73 D6
G1 X123.864 Y121.204 E1.21013
G1 X123.215 Y121.204 E.02478
M73 P13 R8
G1 X100.806 Y98.796 E1.21015
G1 X100.157 Y98.796 E.02478
G1 X122.565 Y121.204 E1.21013
G1 X121.916 Y121.204 E.02478
G1 X99.507 Y98.796 E1.21015
G2 X98.876 Y98.814 I-.14 J6.115 E.02412
G1 X121.266 Y121.204 E1.20915
G1 X120.617 Y121.204 E.02478
M73 P13 R7
M73 Q11 S10
G1 X98.309 Y98.897 E1.2047
G2 X97.832 Y99.069 I.526 J2.198 E.0194
G1 X119.967 Y121.204 E1.19538
G1 X119.318 Y121.204 E.02478
G1 X97.422 Y99.309 E1.18245
G1 X97.09 Y99.59 E.01661
M73 P14 R7
G1 X97.074 Y99.61 E.00098
G1 X118.669 Y121.204 E1.16619
G1 X118.019 Y121.204 E.02482
G1 X96.782 Y99.967 E1.14689
G2 X96.548 Y100.383 I1.895 J1.336 E.01826
G1 X117.37 Y121.204 E1.12445
G1 X116.72 Y121.204 E.02482
G1 X96.383 Y100.867 E1.09828
G2 X96.304 Y101.438 I2.251 J.601 E.02207
G1 X116.071 Y121.204 E1.06747
G1 X115.421 Y121.204 E.02482
G1 X96.296 Y102.079 E1.03283
G1 X96.296 Y102.728 E.02478
M73 Q12 S10
G1 X114.772 Y121.204 E.99778
G1 X114.122 Y121.204 E.02482
M73 P15 R7
G1 X96.296 Y103.378 E.96268
G1 X96.296 Y104.027 E.02478
G1 X113.473 Y121.204 E.92763
G1 X112.823 Y121.204 E.02482
G1 X96.296 Y104.677 E.89253
G1 X96.296 Y105.326 E.02478
G1 X112.174 Y121.204 E.85748
G1 X111.524 Y121.204 E.02482
G1 X105.165 Y114.846 E.34339
G2 X105.035 Y114.498 I-2.098 J.589 E.0142
G1 X104.746 Y113.976 E.02278
G1 X104.316 Y113.466 E.02547
G2 X103.474 Y112.875 I-2.439 J2.582 E.03942
G1 X103.033 Y112.713 E.01794
G1 X96.296 Y105.976 E.36383
G1 X96.296 Y106.625 E.02478
G1 X102.244 Y112.573 E.32122
G2 X101.605 Y112.584 I-.286 J2.149 E.02449
G1 X96.296 Y107.275 E.28671
G1 X96.296 Y107.924 E.02478
G1 X101.048 Y112.676 E.25663
G1 X100.568 Y112.846 E.01945
G1 X96.296 Y108.574 E.23071
G1 X96.296 Y109.223 E.02478
G1 X100.146 Y113.074 E.20794
G1 X99.772 Y113.349 E.01773
G1 X96.296 Y109.873 E.18772
G1 X96.296 Y110.522 E.02478
G1 X99.456 Y113.683 E.17068
G2 X99.172 Y114.048 I1.756 J1.655 E.01769
G1 X96.296 Y111.172 E.15532
G1 X96.296 Y111.821 E.02478
G1 X98.942 Y114.468 E.14292
G2 X98.762 Y114.937 I2.513 J1.237 E.01921
G1 X96.296 Y112.47 E.1332
G1 X96.296 Y113.12 E.02482
G1 X98.629 Y115.454 E.12602
G2 X98.544 Y116.018 I2.796 J.71 E.02182
G1 X96.296 Y113.769 E.12143
G1 X96.296 Y114.419 E.02482
G1 X98.518 Y116.641 E.12
M73 P16 R7
G2 X98.577 Y117.349 I6.106 J-.148 E.02715
G1 X96.09 Y114.863 E.13428
M204 P4000
G1 E-.7
G1 X96.09 Y114.863 F21000
G1 X105.129 Y115.458 Z.358
G1 Z.2 F720
G1 E.7 F1800
M204 P500
G1 F2700
G1 X110.875 Y121.204 E.31031
G1 X110.225 Y121.204 E.02482
M73 Q13 S10
G1 X105.445 Y116.425 E.25811
G1 X105.416 Y117.045 E.0237
G1 X109.576 Y121.204 E.22463
G1 X108.926 Y121.204 E.02482
G1 X105.334 Y117.612 E.19398
G3 X105.206 Y118.134 I-2.581 J-.357 E.02056
G1 X108.277 Y121.204 E.16582
G1 X107.627 Y121.204 E.02482
G1 X105.031 Y118.608 E.14019
G1 X104.804 Y119.031 E.01833
G1 X106.978 Y121.204 E.11738
G1 X106.328 Y121.204 E.02482
G1 X104.526 Y119.402 E.09732
G3 X104.214 Y119.74 I-2.043 J-1.578 E.01759
G1 X105.679 Y121.204 E.07909
G1 X105.03 Y121.204 E.02478
G1 X103.844 Y120.019 E.06402
G3 X103.431 Y120.255 I-1.085 J-1.417 E.01822
G1 X104.38 Y121.204 E.05125
G1 X103.731 Y121.204 E.02478
G1 X102.955 Y120.429 E.04188
G3 X102.401 Y120.525 I-.581 J-1.719 E.02156
G1 X103.081 Y121.204 E.0367
G1 X102.432 Y121.204 E.02478
G1 X101.546 Y120.319 E.04782
M204 P4000
G1 X101.546 Y120.319 F21000
G1 X101.988 Y121.41
M204 P500
G1 F2700
G1 X101.008 Y120.43 E.05292
G3 X100.249 Y120.114 I1.17 J-3.872 E.03145
G3 X99.695 Y119.701 I3.955 J-5.892 E.0264
G3 X99.188 Y119.089 I4.678 J-4.39 E.03037
G1 X98.903 Y118.557 E.02305
G1 X98.782 Y118.204 E.01425
G1 X96.296 Y115.718 E.13425
G1 X96.296 Y116.367 E.02478
G1 X101.133 Y121.204 E.26122
G1 X100.483 Y121.204 E.02482
G1 X96.296 Y117.017 E.22612
G1 X96.296 Y117.666 E.02478
G1 X99.834 Y121.204 E.19107
G1 X99.184 Y121.204 E.02482
G1 X96.296 Y118.316 E.15596
G2 X96.332 Y118.923 I6.251 J-.075 E.02323
G1 X96.357 Y119.027 E.00408
G1 X98.473 Y121.143 E.11427
G3 X97.094 Y120.413 I.531 J-2.672 E.06043
G1 X96.345 Y119.664 E.04045
M204 P4000
M106 S122.4
;LAYER_CHANGE
;Z:0.4
;HEIGHT:0.2
;BEFORE_LAYER_CHANGE
G92 E0.0
;0.4
G1 E-.7 F2700
G1 X96.345 Y119.664 Z.2 F21000
G1 X100.189 Y119.218 Z.4 F14174
;AFTER_LAYER_CHANGE
;0.4
G1 X100.189 Y119.218 F21000
G1 Z.4 F720
G1 E.7 F1800
M204 P6000
;TYPE:Perimeter
;WIDTH:0.449999
G1 F10130.694
G1 X99.984 Y119.014 E.00979
G1 F10154.94
G1 X99.744 Y118.723 E.01277
G1 F10179.122
G1 X99.505 Y118.277 E.01713
G1 F10200
G3 X99.176 Y116.558 I4.548 J-1.762 E.05956
G3 X99.475 Y114.895 I4.691 J-.013 E.05751
G1 X99.747 Y114.38 E.01971
G1 X100.123 Y113.925 E.01998
G1 X100.608 Y113.559 E.02057
G1 X101.245 Y113.302 E.02325
G1 X101.893 Y113.218 E.02212
G1 X102.531 Y113.265 E.02165
G1 X103.056 Y113.417 E.0185
G1 X103.6 Y113.726 E.02118
G1 X103.989 Y114.083 E.01787
G1 X104.304 Y114.534 E.01862
G1 X104.549 Y115.066 E.01983
G1 X104.743 Y115.896 E.02885
G1 X104.785 Y116.488 E.02009
G3 X104.488 Y118.197 I-4.948 J.021 E.05902
G1 X104.217 Y118.723 E.02003
G1 X103.841 Y119.184 E.02014
G1 X103.355 Y119.554 E.02068
G1 F10188.102
G1 X102.716 Y119.812 E.02333
G1 X102.04 Y119.898 E.02307
G1 F10154.242
G1 X101.396 Y119.846 E.02187
G1 F10114.048
G1 X100.878 Y119.686 E.01835
G1 X100.355 Y119.384 E.02044
