; generated by PrusaSlicer 2.7.4+win64 on 2025-08-19 at 07:39:39 UTC


;
;

;
;

;
;

;
;
; 

; external perimeters extrusion width = 0.45mm
; perimeters extrusion width = 0.45mm
; infill extrusion width = 0.45mm
; solid infill extrusion width = 0.45mm
; top infill extrusion width = 0.40mm
; first layer extrusion width = 0.50mm

; external perimeters extrusion width = 0.45mm
; perimeters extrusion width = 0.45mm
; infill extrusion width = 0.45mm
; solid infill extrusion width = 0.45mm
; top infill extrusion width = 0.40mm
; first layer extrusion width = 0.50mm

; external perimeters extrusion width = 0.45mm
; perimeters extrusion width = 0.45mm
; infill extrusion width = 0.45mm
; solid infill extrusion width = 0.45mm
; top infill extrusion width = 0.40mm
; first layer extrusion width = 0.50mm

; external perimeters extrusion width = 0.45mm
; perimeters extrusion width = 0.45mm
; infill extrusion width = 0.45mm
; solid infill extrusion width = 0.45mm
; top infill extrusion width = 0.40mm
; first layer extrusion width = 0.50mm

; external perimeters extrusion width = 0.45mm
; perimeters extrusion width = 0.45mm
; infill extrusion width = 0.45mm
; solid infill extrusion width = 0.45mm
; top infill extrusion width = 0.40mm
; first layer extrusion width = 0.50mm

M73 P0 R103
M201 X2500 Y2500 Z200 E2500 ; sets maximum accelerations, mm/sec^2
M203 X200 Y200 Z40 E100 ; sets maximum feedrates, mm / sec
M204 P2000 R1200 T2000 ; sets acceleration (P, T) and retract acceleration (R), mm/sec^2
M205 X8.00 Y8.00 Z2.00 E10.00 ; sets the jerk limits, mm/sec
M205 S0 T0 ; sets the minimum extruding and travel feed rate, mm/sec

; printing object Krper5 id:4 copy 0
; stop printing object Krper5 id:4 copy 0
; printing object Krper2 id:1 copy 0
; stop printing object Krper2 id:1 copy 0
; printing object Krper1 id:0 copy 0
; stop printing object Krper1 id:0 copy 0
; printing object Krper3 id:2 copy 0
; stop printing object Krper3 id:2 copy 0
; printing object Krper4 id:3 copy 0
; stop printing object Krper4 id:3 copy 0

;TYPE:Custom
M17 ; enable steppers
M862.3 P "MK4" ; printer model check
M862.1 P0.4 ; nozzle diameter check
M115 U5.1.2+13478
M555 X56.0573 Y85.4884 W137.885 H35.0232

G90 ; use absolute coordinates
M83 ; extruder relative mode

M140 S60 ; set bed temp
M104 T0 S170 ; set extruder temp for bed leveling
M109 T0 R170 ; wait for temp

M84 E ; turn off E motor

G28 ; home all without mesh bed level

G1 X42 Y-4 Z5 F4800

M302 S160 ; lower cold extrusion limit to 160C


G1 E-2 F2400 ; retraction


M84 E ; turn off E motor

G29 P9 X10 Y-4 W32 H4

M106 S100

G0 Z40 F10000

M190 S60 ; wait for bed temp

M107

;
; MBL
;
M84 E ; turn off E motor
G29 P1 ; invalidate mbl & probe print area
G29 P1 X0 Y0 W50 H20 C ; probe near purge place
G29 P3.2 ; interpolate mbl probes
G29 P3.13 ; extrapolate mbl outside probe area
G29 A ; activate mbl

; prepare for purge
M104 S215
G0 X0 Y-4 Z15 F4800 ; move away and ready for the purge
M109 S215

G92 E0
M569 S0 E ; set spreadcycle mode for extruder

;
; Extrude purge line
;
G92 E0 ; reset extruder position
G1 E2 F2400 ; deretraction after the initial one before nozzle cleaning
G0 E7 X15 Z0.2 F500 ; purge
G0 X25 E4 F500 ; purge
G0 X35 E4 F650 ; purge
G0 X45 E4 F800 ; purge
G0 X48 Z0.05 F8000 ; wipe, move close to the bed
G0 X51 Z0.2 F8000 ; wipe, move quickly away from the bed

G92 E0
M221 S100 ; set flow to 100%
G21 ; set units to millimeters
G90 ; use absolute coordinates
M83 ; use relative distances for extrusion
M900 K0.05 ; Filament gcode



M142 S36 ; set heatbreak target temp
M107
;LAYER_CHANGE
;Z:0.2
;HEIGHT:0.2
G1 E-.8 F2100
G1 Z.4 F720
; printing object Krper4 id:3 copy 0
G1 X186.967 Y105.451 F12000
G1 Z.2 F720
G1 E.8 F1500
M204 P600
;TYPE:Perimeter
;WIDTH:0.499999
G1 F1200
G1 X186.878 Y105.636 E.0078
G1 X186.849 Y106.066 E.01638
G1 X186.885 Y106.376 E.01186
G1 X187.015 Y106.599 E.00981
G1 X187.277 Y106.785 E.01221
G1 X188.187 Y107.15 E.03726
G1 X188.934 Y107.53 E.03185
G1 X189.601 Y108.019 E.03143
G1 X190.211 Y108.573 E.03132
G1 X190.51 Y108.993 E.01959
G1 X190.83 Y109.477 E.02205
G1 X191.094 Y109.943 E.02036
G1 X191.294 Y110.401 E.01899
G1 X191.434 Y110.882 E.01904
G1 X191.531 Y111.416 E.02063
G1 X191.597 Y111.992 E.02203
G1 X191.64 Y112.522 E.02021
G1 X191.574 Y113.181 E.02517
G1 X191.476 Y113.878 E.02675
G1 X191.337 Y114.511 E.02463
G1 X191.138 Y115.081 E.02295
G1 X190.856 Y115.615 E.02295
G1 X190.486 Y116.147 E.02463
G1 X190.041 Y116.693 E.02677
G1 X189.624 Y117.165 E.02394
G1 X188.983 Y117.599 E.02942
G1 X188.262 Y118.049 E.0323
G1 X187.557 Y118.418 E.03024
G1 X186.845 Y118.691 E.02898
M73 P0 R102
G1 X186.091 Y118.873 E.02948
G1 X185.282 Y118.987 E.03105
G1 X184.422 Y119.053 E.03278
G1 X183.547 Y119.093 E.03329
G1 X167.121 Y119.093 E.62429
G1 X167.121 Y90.907 E1.07124
G1 X182.189 Y90.907 E.57268
G1 X183.193 Y90.968 E.03823
G1 X184.205 Y91.055 E.0386
G1 X186.247 Y91.308 E.0782
G1 X187.124 Y91.439 E.0337
G1 X187.94 Y91.613 E.03171
G1 X188.718 Y91.875 E.0312
G1 X189.451 Y92.19 E.03032
G1 X190.232 Y92.725 E.03598
G1 X190.7 Y93.102 E.02284
G1 X191.141 Y93.54 E.02362
G1 X191.523 Y94.007 E.02293
G1 X192.069 Y94.793 E.03637
G1 X192.534 Y95.805 E.04233
G1 X192.752 Y96.419 E.02476
G1 X192.87 Y96.907 E.01908
G1 X192.962 Y97.527 E.02382
G1 X193.016 Y98.286 E.02892
G1 X193.018 Y98.787 E.01904
G1 X192.943 Y99.705 E.03501
G1 X192.857 Y100.265 E.02153
G1 X192.73 Y100.777 E.02005
G1 X192.543 Y101.265 E.01986
G1 X192.293 Y101.76 E.02108
G1 X191.99 Y102.273 E.02264
G1 X191.713 Y102.71 E.01966
G1 X191.131 Y103.252 E.03023
G1 X190.721 Y103.606 E.02059
G1 X190.188 Y103.999 E.02517
G1 X189.674 Y104.298 E.0226
G1 X189.178 Y104.523 E.0207
G1 X188.634 Y104.724 E.02204
G1 X187.302 Y105.124 E.05286
G1 X187.034 Y105.313 E.01246
G1 X186.993 Y105.397 E.00355
M204 P1000
G1 X186.993 Y105.397 F12000
G1 X187.351 Y105.652
M204 P600
;TYPE:External perimeter
G1 F1200
G1 X187.306 Y106.09 E.01673
G1 X187.34 Y106.274 E.00711
G1 X187.447 Y106.361 E.00524
G1 X188.376 Y106.733 E.03803
G1 X189.174 Y107.139 E.03403
G1 X189.891 Y107.664 E.03377
G1 X190.555 Y108.268 E.03411
G1 X190.887 Y108.735 E.02178
G1 X191.22 Y109.238 E.02293
G1 X191.504 Y109.738 E.02185
G1 X191.725 Y110.246 E.02106
G1 X191.879 Y110.777 E.02101
G1 X191.983 Y111.349 E.0221
G1 X192.052 Y111.947 E.02288
G1 X192.099 Y112.526 E.02208
G1 X192.027 Y113.235 E.02709
G1 X191.927 Y113.959 E.02778
G1 X191.778 Y114.636 E.02635
G1 X191.558 Y115.265 E.02533
G1 X191.247 Y115.853 E.02528
G1 X190.851 Y116.423 E.02638
G1 X190.389 Y116.988 E.02774
G1 X189.929 Y117.511 E.02647
G1 X189.232 Y117.982 E.03197
G1 X188.49 Y118.446 E.03326
G1 X187.745 Y118.835 E.03194
G1 X186.981 Y119.128 E.0311
G1 X186.177 Y119.322 E.03143
G1 X185.332 Y119.441 E.03243
G1 X184.45 Y119.509 E.03362
G1 X183.557 Y119.55 E.03398
G1 X166.664 Y119.55 E.64204
G1 X166.664 Y90.45 E1.10598
G1 X182.203 Y90.45 E.59058
G1 X183.226 Y90.512 E.03895
G1 X184.253 Y90.6 E.03918
G1 X186.309 Y90.855 E.07874
G1 X187.205 Y90.989 E.03443
G1 X188.061 Y91.172 E.03327
G1 X188.882 Y91.448 E.03292
G1 X189.673 Y91.788 E.03272
G1 X190.6 Y92.432 E.0429
G1 X191.113 Y92.86 E.02539
G1 X191.477 Y93.231 E.01975
G1 X191.891 Y93.735 E.02479
G1 X192.467 Y94.564 E.03837
G1 X192.911 Y95.513 E.03982
G1 X193.099 Y95.992 E.01956
G1 X193.247 Y96.474 E.01916
G1 X193.349 Y96.968 E.01917
G1 X193.417 Y97.481 E.01967
G1 X193.472 Y98.253 E.02942
G1 X193.474 Y98.815 E.02136
G1 X193.397 Y99.761 E.03607
G1 X193.306 Y100.356 E.02288
G1 X193.166 Y100.914 E.02186
G1 X192.962 Y101.45 E.0218
G1 X192.695 Y101.979 E.02252
G1 X192.38 Y102.512 E.02353
G1 X192.068 Y103.003 E.02211
G1 X191.605 Y103.442 E.02425
G1 X191.1 Y103.891 E.02568
G1 X190.587 Y104.289 E.02468
G1 X190.051 Y104.624 E.02402
G1 X189.476 Y104.899 E.02422
G1 X188.856 Y105.133 E.02519
G1 X188.207 Y105.338 E.02587
G1 X187.489 Y105.543 E.02838
G1 X187.398 Y105.615 E.00441
M204 P1000
G1 E-.64 F2100
;WIPE_START
G1 F9600
G1 X187.351 Y105.652 E-.01243
G1 X187.306 Y106.09 E-.0915
G1 X187.34 Y106.274 E-.03888
G1 X187.404 Y106.326 E-.01719
;WIPE_END
G1 Z.4 F720
G1 X174.671 Y96.148 F12000
G1 Z.2 F720
G1 E.8 F1500
M204 P600
;TYPE:Perimeter
G1 F1200
G1 X174.694 Y96.01 E.00532
G1 X174.844 Y95.756 E.01121
G1 X175.151 Y95.567 E.0137
G1 X175.345 Y95.539 E.00745
G1 X180.296 Y95.539 E.18817
G1 X181.221 Y95.562 E.03517
G1 X182.301 Y95.711 E.04144
G1 X182.821 Y95.867 E.02063
G1 X183.3 Y96.07 E.01977
G1 X184.133 Y96.515 E.03589
G1 X184.328 Y96.671 E.00949
G1 X184.79 Y97.203 E.02678
G1 X185.111 Y97.714 E.02294
G1 X185.287 Y98.057 E.01465
G1 X185.465 Y98.717 E.02598
G1 X185.526 Y99.214 E.01903
G1 X185.556 Y99.658 E.01691
G1 X185.48 Y100.307 E.02483
G1 X185.305 Y100.948 E.02525
G1 X185.196 Y101.223 E.01124
G1 X184.846 Y101.769 E.02465
G1 X184.322 Y102.357 E.02993
G1 X184.125 Y102.506 E.00939
G1 X183.28 Y102.933 E.03598
G1 X182.716 Y103.129 E.02269
G1 X182.182 Y103.293 E.02123
G1 X181.27 Y103.406 E.03493
G1 X179.658 Y103.431 E.06127
G1 X175.345 Y103.431 E.16392
G1 X175.031 Y103.355 E.01228
G1 X174.803 Y103.166 E.01126
G1 X174.669 Y102.864 E.01256
G1 X174.659 Y102.745 E.00454
G1 X174.659 Y96.225 E.2478
G1 X174.662 Y96.208 E.00066
M204 P1000
G1 X174.662 Y96.208 F12000
G1 X175.116 Y96.225
M204 P600
;TYPE:External perimeter
G1 F1200
G1 X175.178 Y96.068 E.00642
G1 X175.345 Y95.996 E.00691
G1 X180.296 Y95.996 E.18817
G1 X181.21 Y96.019 E.03475
G1 X182.173 Y96.149 E.03693
G1 X182.783 Y96.346 E.02436
G1 X183.918 Y96.918 E.04831
G1 X184.444 Y97.503 E.0299
G1 X184.846 Y98.176 E.02979
G1 X185.023 Y98.836 E.02597
G1 X185.102 Y99.554 E.02745
G1 X185.045 Y100.091 E.02052
G1 X184.865 Y100.822 E.02861
G1 X184.811 Y100.976 E.0062
G1 X184.461 Y101.523 E.02468
G1 X183.984 Y102.049 E.02699
G1 X183.074 Y102.525 E.03903
G1 X182.571 Y102.696 E.02019
G1 X182.126 Y102.84 E.01778
G1 X181.213 Y102.953 E.03496
G1 X179.658 Y102.974 E.05911
G1 X175.345 Y102.974 E.16392
G1 X175.181 Y102.905 E.00676
G1 X175.116 Y102.745 E.00656
G1 X175.116 Y96.285 E.24552
M204 P1000
G1 E-.64 F2100
;WIPE_START
G1 F9600
G1 X175.116 Y96.225 E-.01247
G1 X175.178 Y96.068 E-.03508
G1 X175.345 Y95.996 E-.03779
G1 X175.704 Y95.996 E-.07466
;WIPE_END
G1 Z.4 F720
G1 X175.246 Y107.35 F12000
G1 Z.2 F720
G1 E.8 F1500
M204 P600
;TYPE:Perimeter
G1 F1200
G1 X175.345 Y107.326 E.00387
G1 X179.6 Y107.326 E.16172
G1 X180.232 Y107.34 E.02403
G1 X180.985 Y107.412 E.02875
G1 X181.453 Y107.488 E.01802
G1 X182.232 Y107.759 E.03135
G1 X182.767 Y108.034 E.02286
G1 X183.193 Y108.275 E.0186
G1 X183.709 Y108.89 E.03051
G1 X184.087 Y109.549 E.02887
G1 X184.302 Y110.347 E.03141
G1 X184.37 Y111.077 E.02786
G1 X184.332 Y111.603 E.02004
G1 X184.294 Y111.919 E.0121
G1 X184.142 Y112.514 E.02334
G1 X183.758 Y113.223 E.03064
G1 X183.283 Y113.801 E.02843
G1 X183 Y114.008 E.01333
G1 X182.342 Y114.357 E.02831
G1 X181.484 Y114.666 E.03466
G1 X180.546 Y114.804 E.03603
G1 X179.662 Y114.829 E.03361
G1 X175.345 Y114.829 E.16407
G1 X175.136 Y114.797 E.00804
G1 X174.956 Y114.708 E.00763
G1 X174.729 Y114.446 E.01318
G1 X174.659 Y114.144 E.01178
G1 X174.659 Y108.012 E.23305
G1 X174.71 Y107.752 E.01007
G1 X174.853 Y107.534 E.00991
G1 X175.031 Y107.402 E.00842
G1 X175.188 Y107.364 E.00614
M204 P1000
G1 X175.188 Y107.364 F12000
G1 X175.345 Y107.783
M204 P600
;TYPE:External perimeter
G1 F1200
G1 X179.6 Y107.783 E.16172
G1 X180.222 Y107.797 E.02365
G1 X180.927 Y107.866 E.02692
G1 X181.303 Y107.919 E.01443
G1 X182.081 Y108.191 E.03132
G1 X182.553 Y108.438 E.02025
G1 X182.939 Y108.664 E.017
G1 X183.354 Y109.178 E.02511
G1 X183.687 Y109.771 E.02585
G1 X183.857 Y110.452 E.02668
G1 X183.915 Y111.115 E.02529
G1 X183.857 Y111.771 E.02503
G1 X183.699 Y112.401 E.02469
G1 X183.363 Y112.992 E.02584
G1 X182.934 Y113.507 E.02547
G1 X182.127 Y113.954 E.03506
G1 X181.333 Y114.235 E.03201
G1 X180.487 Y114.351 E.03245
G1 X179.662 Y114.372 E.03137
G1 X175.345 Y114.372 E.16407
G1 X175.215 Y114.332 E.00517
G1 X175.12 Y114.183 E.00672
G1 X175.116 Y114.144 E.00149
G1 X175.116 Y108.012 E.23305
G1 X175.181 Y107.853 E.00653
G1 X175.289 Y107.807 E.00446
M204 P1000
G1 E-.64 F2100
;WIPE_START
G1 F9600
G1 X175.345 Y107.783 E-.01266
G1 X176.054 Y107.783 E-.14734
;WIPE_END
G1 Z.4 F720
G1 X189.521 Y92.487 F12000
G1 Z.2 F720
G1 E.8 F1500
M204 P600
;TYPE:Solid infill
;WIDTH:0.50458
G1 F1200
G1 X190.675 Y93.641 E.06265
G1 X190.921 Y93.909 E.01396
G1 X191.193 Y94.253 E.01683
G1 X191.712 Y94.999 E.03489
G1 X192.003 Y95.622 E.0264
G1 X188.693 Y92.312 E.17969
G1 X188.571 Y92.26 E.00509
G1 X187.831 Y92.011 E.02997
G1 X187.714 Y91.986 E.00459
G1 X192.398 Y96.67 E.25428
G1 X192.493 Y97.114 E.01743
G1 X192.539 Y97.463 E.01351
G1 X186.897 Y91.821 E.30629
G1 X186.13 Y91.708 E.02976
G1 X192.596 Y98.173 E.351
G1 X192.621 Y98.538 E.01404
G1 X192.603 Y98.834 E.01138
G1 X185.385 Y91.616 E.39185
G1 X184.64 Y91.523 E.02882
G1 X192.555 Y99.438 E.42969
G1 X192.535 Y99.655 E.00837
G1 X192.48 Y100.016 E.01402
G1 X183.906 Y91.442 E.46546
G1 X183.192 Y91.381 E.02751
G1 X192.362 Y100.551 E.49782
G1 X192.336 Y100.653 E.00404
G1 X192.191 Y101.033 E.01561
G1 X182.496 Y91.338 E.52632
G1 X182.177 Y91.318 E.01227
G1 X181.824 Y91.318 E.01355
G1 X191.978 Y101.473 E.55126
G1 X191.74 Y101.888 E.01836
G1 X181.171 Y91.318 E.57379
G1 X180.518 Y91.318 E.02507
G1 X191.491 Y102.292 E.59573
G1 X191.393 Y102.447 E.00704
G1 X191.188 Y102.641 E.01083
G1 X179.865 Y91.318 E.6147
G1 X179.212 Y91.318 E.02507
G1 X183.724 Y95.83 E.24495
G1 X184.331 Y96.155 E.02643
G1 X184.44 Y96.221 E.00489
G1 X184.603 Y96.361 E.00825
G1 X185.105 Y96.94 E.02942
G1 X185.206 Y97.078 E.00656
G1 X185.553 Y97.659 E.02598
G1 X190.847 Y102.954 E.28743
G1 X190.499 Y103.258 E.01774
G1 X185.865 Y98.624 E.25157
G1 X185.955 Y99.367 E.02873
G1 X190.131 Y103.543 E.22671
G1 X189.733 Y103.798 E.01814
G1 X185.93 Y99.995 E.20646
G1 X185.875 Y100.442 E.01729
G1 X185.842 Y100.56 E.0047
G1 X189.302 Y104.02 E.18784
G1 X189.134 Y104.1 E.00714
G1 X188.84 Y104.211 E.01206
G1 X185.698 Y101.069 E.17057
G1 X185.67 Y101.168 E.00395
G1 X185.564 Y101.411 E.01018
G1 X185.494 Y101.518 E.00491
G1 X188.356 Y104.38 E.15537
G1 X187.858 Y104.534 E.02001
G1 X185.238 Y101.915 E.14221
G1 X185.14 Y102.067 E.00694
G1 X184.948 Y102.278 E.01095
G1 X187.35 Y104.679 E.13037
G1 X187.061 Y104.78 E.01175
G1 X186.902 Y104.885 E.00731
G1 X184.638 Y102.621 E.12291
G1 X184.476 Y102.771 E.00848
G1 X184.262 Y102.898 E.00955
G1 X186.593 Y105.228 E.12652
G1 X186.474 Y105.551 E.01321
G1 X186.454 Y105.742 E.00737
G1 X183.675 Y102.963 E.15087
M204 P1000
G1 E-.64 F2100
;WIPE_START
G1 F9600
G1 X184.219 Y103.507 E-.16
;WIPE_END
G1 Z.4 F720
G1 X188.013 Y107.301 F12000
G1 Z.2 F720
G1 E.8 F1500
M204 P600
G1 F1200
G1 X190.578 Y109.866 E.13925
G1 X190.726 Y110.127 E.01152
G1 X190.907 Y110.541 E.01734
G1 X191.032 Y110.973 E.01726
G1 X183.393 Y103.334 E.4147
G1 X182.905 Y103.499 E.01977
G1 X191.155 Y111.749 E.44787
G1 X191.223 Y112.47 E.0278
G1 X182.416 Y103.662 E.47814
G1 X182.241 Y103.7 E.00687
G1 X181.848 Y103.748 E.0152
G1 X191.171 Y113.071 E.50612
G1 X191.093 Y113.646 E.02227
G1 X181.266 Y103.819 E.53349
G1 X180.629 Y103.835 E.02446
G1 X190.986 Y114.192 E.56226
G1 X190.941 Y114.399 E.00813
G1 X190.837 Y114.695 E.01204
G1 X179.984 Y103.842 E.58918
G1 X179.331 Y103.842 E.02507
G1 X190.637 Y115.148 E.61378
G1 X190.504 Y115.4 E.01094
G1 X190.394 Y115.558 E.00739
G1 X184.581 Y109.746 E.31555
G1 X184.726 Y110.384 E.02512
G1 X184.738 Y110.555 E.00658
G1 X190.124 Y115.941 E.29239
G1 X189.83 Y116.3 E.01781
G1 X184.777 Y111.247 E.27432
G1 X184.716 Y111.839 E.02285
G1 X189.529 Y116.651 E.26126
G1 X189.35 Y116.854 E.01039
G1 X189.188 Y116.964 E.00752
G1 X184.598 Y112.374 E.24918
G1 X184.502 Y112.74 E.01452
G1 X184.441 Y112.869 E.00548
G1 X188.799 Y117.227 E.23659
G1 X188.398 Y117.479 E.01818
G1 X184.199 Y113.281 E.22793
G1 X184.081 Y113.482 E.00895
G1 X183.93 Y113.664 E.00908
G1 X187.992 Y117.726 E.22052
G1 X187.563 Y117.95 E.01858
G1 X183.634 Y114.021 E.2133
G1 X183.568 Y114.101 E.00398
G1 X183.442 Y114.219 E.00663
G1 X183.283 Y114.323 E.00729
G1 X187.109 Y118.149 E.2077
G1 X186.722 Y118.297 E.01591
G1 X186.627 Y118.32 E.00375
G1 X182.857 Y114.55 E.20466
G1 X182.424 Y114.77 E.01864
